X: 20811
M: 2/4
L: 1/16
K: C
V: 1 name="4"
c2c2 Bcec | G2G2 e3d | c2cB cdef | d^cdc dGAB |\
c2c2 Bcec | G2G2 e3d | c2c2 BcdB | c2e2c2 H|]
ded^c d2g2 | B2d2 G2B2 | A2c2 ^F2A2 | GAG^F GABc |\
dec^c d2a2 | B2d2 G2B2 | A2e2 d2^F2 | B,2G2 FGA"^D.C."B |]
E2 |\


